X: 6334
T: Carval Ny Drogh Vraane
R: reel
M: 4/4
K: Bminor
d3c|F2 B2 B2 Bc|dc B2 f4|e2 ed c2 cB|A4 B4|
F2 B2 B2 bc|dc B2 B3c|d2 e2 f2 f2|e4 d3e|
f2 dc B2 f2|dc B2 f4|e2 ed c2 cB|A4 d3c|
B3A c2 BG|F2 E2 E3F|B2 Bc d3c|B4||

